X: 43
T: The Merry Hunters
R: hornpipe
M: 2/4
L: 1/8
Z: 2011 John Chambers <jc:trillian.mit.edu>
B: Charles & Samuel Thompson eds "Twenty Four Country Dances", London 1774, p.22 #1
K: F
% - - - - - - - - - - - - - - - - - - - - - - - - -
|: F>FF>F | TG3d | c>BA>G | (A>c)f2 |\
   F>FF>A | G3f  | (e>dc>=B) | c4 :|
|: c>cc>c | b3a  | g>(fe>d) | c>BA>G |\
   A>Fc>A | f2ed |  c>BA>G | F4 :|
% - - - - - - - - Dance description - - - - - - - -
%%begintext align
%% The first Cu: lead thro the 3d Cu: cast off lead up thro
%% the 2d Cu: .|. :|. foot it and back to back right Hands
%% and left .|: :|:
%%endtext

%%sep 1 1 500
